svgs/tolino.svg

<svg width="192" height="192" viewBox="0 0 192 192" fill="none" xmlns="http://www.w3.org/2000/svg">
<path fill-rule="evenodd" clip-rule="evenodd" d="M99.4675 87.5686C103.467 82.0245 110.366 72.3282 120.542 65.2845C130.719 58.2408 144.172 53.8509 152.006 51.565C159.839 49.2791 162.053 49.0974 164.439 48.9773C166.826 48.8572 169.384 48.7986 169.819 50.1448C170.253 51.4911 168.566 54.2416 166.503 57.0816C164.44 59.9216 162.001 62.8509 159.13 66.6121C156.259 70.3734 152.956 74.9661 149.731 81.1367C146.507 87.3073 143.362 95.0546 140.416 99.3078C137.469 103.561 134.721 104.32 130.864 105.259C127.007 106.198 122.04 107.316 117.073 108.434C118.853 111.5 120.976 115.157 123.322 118.164C125.668 121.171 130.479 126.4 131.286 132.313C132.093 138.227 129.676 145.67 126.515 152.434C123.355 159.199 119.451 165.284 113.12 167.307C106.789 169.331 98.03 167.293 93.5671 163.194C89.1042 159.096 88.9394 152.937 88.8707 146.367C88.802 139.797 88.8295 132.818 86.0815 128.859C83.3335 124.9 77.811 123.968 73.7924 127.086C69.7738 130.205 67.2572 137.377 65.1396 142.924C63.0219 148.471 61.3028 152.395 58.409 154.76C55.5151 157.126 51.4456 157.935 46.7236 157.614C42.0016 157.293 36.6271 155.841 33.2167 151.663C29.8063 147.485 28.3616 140.58 27.7017 134.375C27.0417 128.171 27.167 122.669 28.736 117.946C30.305 113.223 33.3176 109.282 37.8612 106.69C42.4048 104.097 48.478 102.855 49.8986 100.529C51.3193 98.2036 48.087 94.794 44.102 92.0151C40.1171 89.2362 35.3797 87.0888 33.131 81.3114C30.8822 75.5339 31.1237 66.1264 30.022 58.0036C28.9202 49.8808 26.4748 43.0433 24.878 38.2963C23.2812 33.5493 22.5333 30.8934 22.1282 28.5248C21.7232 26.1563 21.6615 24.0755 23.3033 23.6928C24.9452 23.3101 28.2891 24.6261 32.1646 26.8967C36.0401 29.1673 40.4468 32.3917 45.8144 36.9043C51.182 41.4168 57.5098 47.2168 62.3244 53.5479C67.139 59.8791 70.4404 66.7403 72.7119 73.2934C74.9834 79.8466 76.225 86.0902 76.8172 89.7148C77.4094 93.3393 77.3522 94.3428 79.9862 94.9358C82.6203 95.5289 87.943 95.7123 93.267 95.8958C94.3675 94.5041 95.4679 93.1126 99.4675 87.5686V87.5686Z" stroke="black" stroke-width="12" stroke-miterlimit="0" stroke-linecap="round" stroke-linejoin="round"/>
<path fill-rule="evenodd" clip-rule="evenodd" d="M75.8676 128.916C74.4467 129.336 76.1736 130.624 77.1508 132.018C78.128 133.412 78.3567 134.913 78.7849 135.009C79.2131 135.105 79.8412 133.798 81.1481 132.627C82.455 131.457 84.4399 130.424 83.1484 129.684C81.8569 128.944 77.2884 128.496 75.8676 128.916Z" fill="black" stroke="black" stroke-width="0.9" stroke-miterlimit="0" stroke-linecap="round" stroke-linejoin="round"/>
<path fill-rule="evenodd" clip-rule="evenodd" d="M77.991 93.9886C79.7544 92.387 81.5177 90.7855 82.9689 89.4781C84.4201 88.1707 85.5591 87.1574 86.6898 87.1145C87.8204 87.0715 88.9415 87.9977 90.1748 89.3002C91.4081 90.6027 92.7537 92.281 94.0984 93.9582" fill="black"/>
<path d="M77.991 93.9886C79.7544 92.387 81.5177 90.7855 82.9689 89.4781C84.4201 88.1707 85.5591 87.1574 86.6898 87.1145C87.8204 87.0715 88.9415 87.9977 90.1748 89.3002C91.4081 90.6027 92.7537 92.281 94.0984 93.9582" stroke="black" stroke-width="0.9" stroke-miterlimit="0" stroke-linecap="round" stroke-linejoin="round"/>
</svg>

<svg width="192" height="192" fill="none" xmlns="http://www.w3.org/2000/svg"><path clip-rule="evenodd" d="M99.468 87.569c3.999-5.544 10.898-15.24 21.074-22.285 10.177-7.043 23.63-11.433 31.464-13.719 7.833-2.286 10.047-2.468 12.433-2.588 2.387-.12 4.945-.178 5.38 1.168.434 1.346-1.253 4.097-3.316 6.937-2.063 2.84-4.502 5.769-7.373 9.53-2.871 3.761-6.174 8.354-9.399 14.525-3.224 6.17-6.369 13.918-9.315 18.17-2.947 4.254-5.695 5.013-9.552 5.952-3.857.939-8.824 2.057-13.791 3.175 1.78 3.066 3.903 6.723 6.249 9.73 2.346 3.007 7.157 8.236 7.964 14.149.807 5.914-1.61 13.357-4.771 20.121-3.16 6.765-7.064 12.85-13.395 14.873-6.331 2.024-15.09-.014-19.553-4.113-4.463-4.098-4.628-10.257-4.696-16.827-.069-6.57-.041-13.549-2.79-17.508-2.748-3.959-8.27-4.891-12.289-1.773-4.018 3.119-6.535 10.291-8.652 15.838-2.118 5.547-3.837 9.471-6.731 11.836-2.894 2.366-6.963 3.175-11.685 2.854-4.722-.321-10.097-1.773-13.507-5.951s-4.855-11.083-5.515-17.288c-.66-6.204-.535-11.706 1.034-16.429 1.569-4.723 4.582-8.664 9.125-11.256 4.544-2.593 10.617-3.835 12.038-6.161 1.42-2.325-1.812-5.735-5.797-8.514-3.985-2.779-8.722-4.926-10.971-10.704-2.249-5.777-2.007-15.185-3.109-23.307-1.102-8.123-3.547-14.96-5.144-19.708-1.597-4.747-2.345-7.403-2.75-9.771-.405-2.369-.466-4.45 1.175-4.832 1.642-.383 4.986.933 8.862 3.204 3.875 2.27 8.282 5.495 13.65 10.007 5.367 4.513 11.695 10.313 16.51 16.644 4.814 6.331 8.115 13.192 10.387 19.745 2.271 6.554 3.513 12.797 4.105 16.422.592 3.624.535 4.628 3.17 5.22 2.633.594 7.956.777 13.28.96 1.1-1.39 2.2-2.782 6.2-8.326v0Z" stroke="#000" stroke-width="12" stroke-miterlimit="0" stroke-linecap="round" stroke-linejoin="round"/><path fill-rule="evenodd" clip-rule="evenodd" d="M75.868 128.916c-1.421.42.306 1.708 1.283 3.102.977 1.394 1.206 2.895 1.634 2.991.428.096 1.056-1.211 2.363-2.382 1.307-1.17 3.292-2.203 2-2.943-1.291-.74-5.86-1.188-7.28-.768Z" fill="#000" stroke="#000" stroke-width=".9" stroke-miterlimit="0" stroke-linecap="round" stroke-linejoin="round"/><path fill-rule="evenodd" clip-rule="evenodd" d="M77.991 93.989c1.763-1.602 3.527-3.204 4.978-4.51 1.451-1.308 2.59-2.322 3.72-2.364 1.131-.043 2.253.883 3.486 2.185 1.233 1.303 2.579 2.981 3.923 4.658" fill="#000"/><path d="M77.991 93.989c1.763-1.602 3.527-3.204 4.978-4.51 1.451-1.308 2.59-2.322 3.72-2.364 1.131-.043 2.253.883 3.486 2.185 1.233 1.303 2.579 2.981 3.923 4.658" stroke="#000" stroke-width=".9" stroke-miterlimit="0" stroke-linecap="round" stroke-linejoin="round"/></svg>
